; generated by Slic3r 1.2.9 on 2017-09-03 at 20:09:40

; external perimeters extrusion width = 0.50mm
; perimeters extrusion width = 0.58mm
; infill extrusion width = 0.58mm
; solid infill extrusion width = 0.58mm
; top infill extrusion width = 0.58mm

M107
M190 S65 ; set bed temperature
M104 S205 ; set temperature
G28 ; home all axes
G1 Z5 F5000 ; lift nozzle

M109 S205 ; wait for temperature to be reached
G21 ; set units to millimeters
G90 ; use absolute coordinates
M82 ; use absolute distances for extrusion
G92 E0
G1 Z0.500 F7800.000
G1 E-2.00000 F2400.00000
G92 E0
G1 X79.650 Y80.654 F7800.000
G1 E2.00000 F2400.00000
G1 X81.412 Y79.115 E2.43418 F1800.000
G1 X83.587 Y78.254 E2.86836
G1 X85.000 Y78.107 E3.13191
G1 X115.000 Y78.107 E8.69902
G1 X117.306 Y78.504 E9.13320
G1 X119.346 Y79.650 E9.56738 F1800.000
G1 X120.885 Y81.412 E10.00156
G1 X121.746 Y83.587 E10.43573
G1 X121.893 Y85.000 E10.69928
G1 X121.893 Y115.000 E16.26640
G1 X121.496 Y117.306 E16.70058
G1 X120.350 Y119.346 E17.13476
G1 X118.588 Y120.885 E17.56893
G1 X116.413 Y121.746 E18.00311
G1 X115.000 Y121.893 E18.26666
G1 X85.000 Y121.893 E23.83378
G1 X82.694 Y121.496 E24.26796
G1 X80.654 Y120.350 E24.70214
G1 X79.115 Y118.588 E25.13631
G1 X78.254 Y116.413 E25.57049
G1 X78.107 Y115.000 E25.83404
G1 X78.107 Y85.000 E31.40116
G1 X78.504 Y82.694 E31.83534
G1 X79.613 Y80.720 E32.25560
G1 E30.25560 F2400.00000
G92 E0
G1 X112.715 Y112.715 F7800.000
G1 E2.00000 F2400.00000
G1 X87.285 Y112.715 E6.71891 F1800.000
G1 X87.285 Y87.285 E11.43782
G1 X112.715 Y87.285 E16.15673
G1 X112.715 Y112.640 E20.86173
G1 X113.607 Y113.607 F7800.000
G1 X86.393 Y113.607 E25.91196 F1800.000
G1 X86.393 Y86.393 E30.96219
G1 X113.607 Y86.393 E36.01241
G1 X113.607 Y113.532 E41.04873
G1 X114.500 Y114.500 F7800.000
G1 X85.500 Y114.500 E46.43027 F1800.000
G1 X85.500 Y85.500 E51.81182
G1 X114.500 Y85.500 E57.19337
G1 X114.500 Y114.425 E62.56099
G1 X114.067 Y114.250 F7800.000
G1 X112.165 Y88.254 F7800.000
G1 X111.746 Y87.835 E62.67350 F1800.000
G1 X110.454 Y87.835 E62.91907
G1 X112.165 Y89.546 E63.37886
G1 X112.165 Y90.839 E63.62442
G1 X109.161 Y87.835 E64.43149
G1 X107.869 Y87.835 E64.67705
G1 X112.165 Y92.131 E65.83140
G1 X112.165 Y93.424 E66.07697
G1 X106.576 Y87.835 E67.57860
G1 X105.284 Y87.835 E67.82416
G1 X112.165 Y94.716 E69.67307
G1 X112.165 Y96.009 E69.91863
G1 X103.991 Y87.835 E72.11482
G1 X102.699 Y87.835 E72.36039
G1 X112.165 Y97.301 E74.90386
G1 X112.165 Y98.594 E75.14942
G1 X101.406 Y87.835 E78.04017
G1 X100.114 Y87.835 E78.28573
G1 X112.165 Y99.886 E81.52376
G1 X112.165 Y101.179 E81.76933
G1 X98.821 Y87.835 E85.35464
G1 X97.529 Y87.835 E85.60020
G1 X112.165 Y102.471 E89.53279
G1 X112.165 Y103.764 E89.77835
G1 X96.236 Y87.835 E94.05822
G1 X94.944 Y87.835 E94.30379
G1 X112.165 Y105.056 E98.93094
G1 X112.165 Y106.349 E99.17650
G1 X93.651 Y87.835 E104.15093
G1 X92.359 Y87.835 E104.39649
G1 X112.165 Y107.641 E109.71820
G1 X112.165 Y108.934 E109.96377
G1 X91.066 Y87.835 E115.63276
G1 X89.774 Y87.835 E115.87832
G1 X112.165 Y110.226 E121.89459
G1 X112.165 Y111.519 E122.14016
G1 X88.481 Y87.835 E128.50371
G1 X87.835 Y88.481 E128.67735
G1 X111.519 Y112.165 E135.04089
G1 X110.226 Y112.165 E135.28646
G1 X87.835 Y89.774 E141.30273
G1 X87.835 Y91.066 E141.54829
G1 X108.934 Y112.165 E147.21728
G1 X107.641 Y112.165 E147.46284
G1 X87.835 Y92.359 E152.78455
G1 X87.835 Y93.651 E153.03012
G1 X106.349 Y112.165 E158.00454
G1 X105.056 Y112.165 E158.25011
G1 X87.835 Y94.944 E162.87726
G1 X87.835 Y96.236 E163.12282
G1 X103.764 Y112.165 E167.40269
G1 X102.471 Y112.165 E167.64825
G1 X87.835 Y97.529 E171.58084
G1 X87.835 Y98.821 E171.82641
G1 X101.179 Y112.165 E175.41171
G1 X99.886 Y112.165 E175.65728
G1 X87.835 Y100.114 E178.89531
G1 X87.835 Y101.406 E179.14087
G1 X98.594 Y112.165 E182.03162
G1 X97.301 Y112.165 E182.27718
G1 X87.835 Y102.699 E184.82065
G1 X87.835 Y103.991 E185.06622
G1 X96.009 Y112.165 E187.26240
G1 X94.716 Y112.165 E187.50797
G1 X87.835 Y105.284 E189.35688
G1 X87.835 Y106.576 E189.60244
G1 X93.424 Y112.165 E191.10407
G1 X92.131 Y112.165 E191.34963
G1 X87.835 Y107.869 E192.50398
G1 X87.835 Y109.161 E192.74954
G1 X90.839 Y112.165 E193.55661
G1 X89.546 Y112.165 E193.80218
G1 X87.835 Y110.454 E194.26197
G1 X87.835 Y111.746 E194.50753
G1 X88.254 Y112.165 E194.62004
M104 S200 ; set temperature
M140 S60 ; wait for bed temperature to be reached
G1 Z0.900 F7800.000
G1 X113.807 Y113.807 F7800.000
G1 X86.193 Y113.807 E196.87418 F3600.000
G1 X86.193 Y86.193 E199.12832
G1 X113.807 Y86.193 E201.38246
G1 X113.807 Y113.732 E203.63048
G1 X114.297 Y114.297 F7800.000
G1 X85.703 Y114.297 E205.96476 F3600.000
G1 X85.703 Y85.703 E208.29904
G1 X114.297 Y85.703 E210.63333
G1 X114.297 Y114.222 E212.96149
G1 X114.750 Y114.750 F7800.000
G1 X85.250 Y114.750 E214.99330 F1800.000
G1 X85.250 Y85.250 E217.02511
G1 X114.750 Y85.250 E219.05692
G1 X114.750 Y114.675 E221.08357
G1 X114.317 Y114.500 F7800.000
G1 X113.265 Y113.514 F7800.000
G1 X113.514 Y113.265 E221.11228 F1200.000
G1 X113.514 Y112.570 E221.16917
G1 X112.570 Y113.514 E221.27835
G1 X111.874 Y113.514 E221.33524
G1 X113.514 Y111.874 E221.52486
G1 X113.514 Y111.179 E221.58175
G1 X111.179 Y113.514 E221.85184
G1 X110.483 Y113.514 E221.90873
G1 X113.514 Y110.483 E222.25927
G1 X113.514 Y109.787 E222.31616
G1 X109.787 Y113.514 E222.74715
G1 X109.092 Y113.514 E222.80404
G1 X113.514 Y109.092 E223.31549
G1 X113.514 Y108.396 E223.37238
G1 X108.396 Y113.514 E223.96429
G1 X107.701 Y113.514 E224.02118
G1 X113.514 Y107.701 E224.69354
G1 X113.514 Y107.005 E224.75043
G1 X107.005 Y113.514 E225.50324
G1 X106.310 Y113.514 E225.56014
G1 X113.514 Y106.310 E226.39341
G1 X113.514 Y105.614 E226.45030
G1 X105.614 Y113.514 E227.36402
G1 X104.919 Y113.514 E227.42091
G1 X113.514 Y104.919 E228.41510
G1 X113.514 Y104.223 E228.47199
G1 X104.223 Y113.514 E229.54663
G1 X103.528 Y113.514 E229.60352
G1 X113.514 Y103.528 E230.75861
G1 X113.514 Y102.832 E230.81550
G1 X102.832 Y113.514 E232.05105
G1 X102.136 Y113.514 E232.10794
G1 X113.514 Y102.136 E233.42394
G1 X113.514 Y101.441 E233.48083
G1 X101.441 Y113.514 E234.87729
G1 X100.745 Y113.514 E234.93418
G1 X113.514 Y100.745 E236.41110
G1 X113.514 Y100.050 E236.46799
G1 X100.050 Y113.514 E238.02536
G1 X99.354 Y113.514 E238.08225
G1 X113.514 Y99.354 E239.72008
G1 X113.514 Y98.659 E239.77697
G1 X98.659 Y113.514 E241.49525
G1 X97.963 Y113.514 E241.55214
G1 X113.514 Y97.963 E243.35088
G1 X113.514 Y97.268 E243.40777
G1 X97.268 Y113.514 E245.28696
G1 X96.572 Y113.514 E245.34385
G1 X113.514 Y96.572 E247.30350
G1 X113.514 Y95.876 E247.36039
G1 X95.876 Y113.514 E249.40049
G1 X95.181 Y113.514 E249.45738
G1 X113.514 Y95.181 E251.57794
G1 X113.514 Y94.485 E251.63483
G1 X94.485 Y113.514 E253.83585
G1 X93.790 Y113.514 E253.89274
G1 X113.514 Y93.790 E256.17421
G1 X113.514 Y93.094 E256.23110
G1 X93.094 Y113.514 E258.59302
G1 X92.399 Y113.514 E258.64991
G1 X113.514 Y92.399 E261.09229
G1 X113.514 Y91.703 E261.14918
G1 X91.703 Y113.514 E263.67202
G1 X91.008 Y113.514 E263.72891
G1 X113.514 Y91.008 E266.33220
G1 X113.514 Y90.312 E266.38909
G1 X90.312 Y113.514 E269.07284
G1 X89.616 Y113.514 E269.12973
G1 X113.514 Y89.616 E271.89393
G1 X113.514 Y88.921 E271.95082
G1 X88.921 Y113.514 E274.79548
G1 X88.225 Y113.514 E274.85237
G1 X113.514 Y88.225 E277.77748
G1 X113.514 Y87.530 E277.83437
G1 X87.530 Y113.514 E280.83994
G1 X86.834 Y113.514 E280.89683
G1 X113.514 Y86.834 E283.98286
G1 X113.166 Y86.486 E284.02309
G1 X86.486 Y113.166 E287.10910
G1 X86.486 Y112.470 E287.16599
G1 X112.470 Y86.486 E290.17155
G1 X111.775 Y86.486 E290.22844
G1 X86.486 Y111.775 E293.15354
G1 X86.486 Y111.079 E293.21043
G1 X111.079 Y86.486 E296.05508
G1 X110.383 Y86.486 E296.11197
G1 X86.486 Y110.383 E298.87616
G1 X86.486 Y109.688 E298.93305
G1 X109.688 Y86.486 E301.61679
G1 X108.992 Y86.486 E301.67368
G1 X86.486 Y108.992 E304.27696
G1 X86.486 Y108.297 E304.33385
G1 X108.297 Y86.486 E306.85668
G1 X107.601 Y86.486 E306.91357
G1 X86.486 Y107.601 E309.35594
G1 X86.486 Y106.906 E309.41283
G1 X106.906 Y86.486 E311.77474
G1 X106.210 Y86.486 E311.83164
G1 X86.486 Y106.210 E314.11309
G1 X86.486 Y105.515 E314.16999
G1 X105.515 Y86.486 E316.37099
G1 X104.819 Y86.486 E316.42788
G1 X86.486 Y104.819 E318.54843
G1 X86.486 Y104.123 E318.60532
G1 X104.123 Y86.486 E320.64541
G1 X103.428 Y86.486 E320.70230
G1 X86.486 Y103.428 E322.66194
G1 X86.486 Y102.732 E322.71883
G1 X102.732 Y86.486 E324.59801
G1 X102.037 Y86.486 E324.65490
G1 X86.486 Y102.037 E326.45363
G1 X86.486 Y101.341 E326.51052
G1 X101.341 Y86.486 E328.22879
G1 X100.646 Y86.486 E328.28568
G1 X86.486 Y100.646 E329.92350
G1 X86.486 Y99.950 E329.98039
G1 X99.950 Y86.486 E331.53775
G1 X99.255 Y86.486 E331.59464
G1 X86.486 Y99.255 E333.07154
G1 X86.486 Y98.559 E333.12843
G1 X98.559 Y86.486 E334.52488
G1 X97.864 Y86.486 E334.58177
G1 X86.486 Y97.864 E335.89776
G1 X86.486 Y97.168 E335.95466
G1 X97.168 Y86.486 E337.19019
G1 X96.472 Y86.486 E337.24708
G1 X86.486 Y96.472 E338.40217
G1 X86.486 Y95.777 E338.45906
G1 X95.777 Y86.486 E339.53368
G1 X95.081 Y86.486 E339.59057
G1 X86.486 Y95.081 E340.58475
G1 X86.486 Y94.386 E340.64164
G1 X94.386 Y86.486 E341.55535
G1 X93.690 Y86.486 E341.61224
G1 X86.486 Y93.690 E342.44550
G1 X86.486 Y92.995 E342.50239
G1 X92.995 Y86.486 E343.25520
G1 X92.299 Y86.486 E343.31209
G1 X86.486 Y92.299 E343.98444
G1 X86.486 Y91.604 E344.04133
G1 X91.604 Y86.486 E344.63323
G1 X90.908 Y86.486 E344.69012
G1 X86.486 Y90.908 E345.20155
G1 X86.486 Y90.212 E345.25845
G1 X90.212 Y86.486 E345.68943
G1 X89.517 Y86.486 E345.74632
G1 X86.486 Y89.517 E346.09685
G1 X86.486 Y88.821 E346.15374
G1 X88.821 Y86.486 E346.42381
G1 X88.126 Y86.486 E346.48070
G1 X86.486 Y88.126 E346.67032
G1 X86.486 Y87.430 E346.72721
G1 X87.430 Y86.486 E346.83637
G1 X86.735 Y86.486 E346.89326
G1 X86.486 Y86.735 E346.92197
G1 Z1.300 F7800.000
G1 X113.807 Y113.807 F7800.000
G1 X86.193 Y113.807 E349.17611 F3600.000
G1 X86.193 Y86.193 E351.43025
G1 X113.807 Y86.193 E353.68439
G1 X113.807 Y113.732 E355.93241
G1 X114.297 Y114.297 F7800.000
G1 X85.703 Y114.297 E358.26669 F3600.000
G1 X85.703 Y85.703 E360.60097
G1 X114.297 Y85.703 E362.93525
G1 X114.297 Y114.222 E365.26341
G1 X114.750 Y114.750 F7800.000
G1 X85.250 Y114.750 E367.29523 F1800.000
G1 X85.250 Y85.250 E369.32704
G1 X114.750 Y85.250 E371.35885
G1 X114.750 Y114.675 E373.38549
G1 X114.317 Y114.500 F7800.000
G1 X113.514 Y86.735 F7800.000
G1 X113.265 Y86.486 E373.41421 F1200.000
G1 X112.570 Y86.486 E373.47110
G1 X113.514 Y87.430 E373.58027
G1 X113.514 Y88.126 E373.63716
G1 X111.874 Y86.486 E373.82679
G1 X111.179 Y86.486 E373.88368
G1 X113.514 Y88.821 E374.15377
G1 X113.514 Y89.517 E374.21066
G1 X110.483 Y86.486 E374.56120
G1 X109.787 Y86.486 E374.61809
G1 X113.514 Y90.213 E375.04908
G1 X113.514 Y90.908 E375.10597
G1 X109.092 Y86.486 E375.61742
G1 X108.396 Y86.486 E375.67431
G1 X113.514 Y91.604 E376.26622
G1 X113.514 Y92.299 E376.32311
G1 X107.701 Y86.486 E376.99547
G1 X107.005 Y86.486 E377.05236
G1 X113.514 Y92.995 E377.80517
G1 X113.514 Y93.690 E377.86206
G1 X106.310 Y86.486 E378.69533
G1 X105.614 Y86.486 E378.75223
G1 X113.514 Y94.386 E379.66595
G1 X113.514 Y95.081 E379.72284
G1 X104.919 Y86.486 E380.71703
G1 X104.223 Y86.486 E380.77392
G1 X113.514 Y95.777 E381.84855
G1 X113.514 Y96.472 E381.90544
G1 X103.528 Y86.486 E383.06054
G1 X102.832 Y86.486 E383.11743
G1 X113.514 Y97.168 E384.35298
G1 X113.514 Y97.864 E384.40987
G1 X102.136 Y86.486 E385.72587
G1 X101.441 Y86.486 E385.78276
G1 X113.514 Y98.559 E387.17922
G1 X113.514 Y99.255 E387.23611
G1 X100.745 Y86.486 E388.71303
G1 X100.050 Y86.486 E388.76992
G1 X113.514 Y99.950 E390.32729
G1 X113.514 Y100.646 E390.38418
G1 X99.354 Y86.486 E392.02200
G1 X98.659 Y86.486 E392.07890
G1 X113.514 Y101.341 E393.79718
G1 X113.514 Y102.037 E393.85407
G1 X97.963 Y86.486 E395.65280
G1 X97.268 Y86.486 E395.70969
G1 X113.514 Y102.732 E397.58889
G1 X113.514 Y103.428 E397.64578
G1 X96.572 Y86.486 E399.60543
G1 X95.876 Y86.486 E399.66232
G1 X113.514 Y104.124 E401.70242
G1 X113.514 Y104.819 E401.75931
G1 X95.181 Y86.486 E403.87987
G1 X94.485 Y86.486 E403.93676
G1 X113.514 Y105.515 E406.13777
G1 X113.514 Y106.210 E406.19466
G1 X93.790 Y86.486 E408.47613
G1 X93.094 Y86.486 E408.53302
G1 X113.514 Y106.906 E410.89495
G1 X113.514 Y107.601 E410.95184
G1 X92.399 Y86.486 E413.39422
G1 X91.703 Y86.486 E413.45111
G1 X113.514 Y108.297 E415.97395
G1 X113.514 Y108.992 E416.03084
G1 X91.008 Y86.486 E418.63413
G1 X90.312 Y86.486 E418.69102
G1 X113.514 Y109.688 E421.37477
G1 X113.514 Y110.384 E421.43166
G1 X89.616 Y86.486 E424.19586
G1 X88.921 Y86.486 E424.25275
G1 X113.514 Y111.079 E427.09741
G1 X113.514 Y111.775 E427.15430
G1 X88.225 Y86.486 E430.07941
G1 X87.530 Y86.486 E430.13630
G1 X113.514 Y112.470 E433.14187
G1 X113.514 Y113.166 E433.19876
G1 X86.834 Y86.486 E436.28479
G1 X86.486 Y86.834 E436.32501
G1 X113.166 Y113.514 E439.41103
G1 X112.470 Y113.514 E439.46792
G1 X86.486 Y87.530 E442.47348
G1 X86.486 Y88.225 E442.53037
G1 X111.775 Y113.514 E445.45547
G1 X111.079 Y113.514 E445.51236
G1 X86.486 Y88.921 E448.35701
G1 X86.486 Y89.617 E448.41390
G1 X110.383 Y113.514 E451.17809
G1 X109.688 Y113.514 E451.23498
G1 X86.486 Y90.312 E453.91872
G1 X86.486 Y91.008 E453.97561
G1 X108.992 Y113.514 E456.57889
G1 X108.297 Y113.514 E456.63578
G1 X86.486 Y91.703 E459.15861
G1 X86.486 Y92.399 E459.21550
G1 X107.601 Y113.514 E461.65787
G1 X106.906 Y113.514 E461.71476
G1 X86.486 Y93.094 E464.07667
G1 X86.486 Y93.790 E464.13356
G1 X106.210 Y113.514 E466.41502
G1 X105.515 Y113.514 E466.47191
G1 X86.486 Y94.485 E468.67291
G1 X86.486 Y95.181 E468.72981
G1 X104.819 Y113.514 E470.85035
G1 X104.123 Y113.514 E470.90724
G1 X86.486 Y95.877 E472.94734
G1 X86.486 Y96.572 E473.00423
G1 X103.428 Y113.514 E474.96386
G1 X102.732 Y113.514 E475.02075
G1 X86.486 Y97.268 E476.89994
G1 X86.486 Y97.963 E476.95683
G1 X102.037 Y113.514 E478.75555
G1 X101.341 Y113.514 E478.81244
G1 X86.486 Y98.659 E480.53071
G1 X86.486 Y99.354 E480.58761
G1 X100.646 Y113.514 E482.22542
G1 X99.950 Y113.514 E482.28231
G1 X86.486 Y100.050 E483.83967
G1 X86.486 Y100.745 E483.89656
G1 X99.255 Y113.514 E485.37347
G1 X98.559 Y113.514 E485.43036
G1 X86.486 Y101.441 E486.82681
G1 X86.486 Y102.136 E486.88370
G1 X97.864 Y113.514 E488.19969
G1 X97.168 Y113.514 E488.25658
G1 X86.486 Y102.832 E489.49212
G1 X86.486 Y103.528 E489.54901
G1 X96.472 Y113.514 E490.70409
G1 X95.777 Y113.514 E490.76098
G1 X86.486 Y104.223 E491.83561
G1 X86.486 Y104.919 E491.89250
G1 X95.081 Y113.514 E492.88667
G1 X94.386 Y113.514 E492.94356
G1 X86.486 Y105.614 E493.85728
G1 X86.486 Y106.310 E493.91417
G1 X93.690 Y113.514 E494.74743
G1 X92.995 Y113.514 E494.80432
G1 X86.486 Y107.005 E495.55712
G1 X86.486 Y107.701 E495.61401
G1 X92.299 Y113.514 E496.28636
G1 X91.604 Y113.514 E496.34326
G1 X86.486 Y108.396 E496.93515
G1 X86.486 Y109.092 E496.99204
G1 X90.908 Y113.514 E497.50348
G1 X90.212 Y113.514 E497.56037
G1 X86.486 Y109.788 E497.99135
G1 X86.486 Y110.483 E498.04824
G1 X89.517 Y113.514 E498.39877
G1 X88.821 Y113.514 E498.45566
G1 X86.486 Y111.179 E498.72573
G1 X86.486 Y111.874 E498.78262
G1 X88.126 Y113.514 E498.97224
G1 X87.430 Y113.514 E499.02913
G1 X86.486 Y112.570 E499.13829
G1 X86.486 Y113.265 E499.19518
G1 X86.735 Y113.514 E499.22389
M106 S229.5
G1 Z1.700 F7800.000
G1 X113.807 Y113.807 F7800.000
G1 X86.193 Y113.807 E501.47803 F3600.000
G1 X86.193 Y86.193 E503.73217
G1 X113.807 Y86.193 E505.98631
G1 X113.807 Y113.732 E508.23433
G1 X114.297 Y114.297 F7800.000
G1 X85.703 Y114.297 E510.56861 F3600.000
G1 X85.703 Y85.703 E512.90290
G1 X114.297 Y85.703 E515.23718
G1 X114.297 Y114.222 E517.56534
G1 X114.750 Y114.750 F7800.000
G1 X85.250 Y114.750 E519.59715 F1800.000
G1 X85.250 Y85.250 E521.62896
G1 X114.750 Y85.250 E523.66077
G1 X114.750 Y114.675 E525.68742
G1 X114.317 Y114.500 F7800.000
G1 X113.389 Y110.029 F7800.000
G1 X111.292 Y109.467 E525.86471 F4800.000
G1 X109.087 Y111.671 E526.11919
G1 X109.548 Y113.389 E526.26439
G1 X113.389 Y113.389 E526.57800
G1 X113.389 Y110.029 E526.85232
G1 X113.389 Y104.947 F7800.000
G1 X113.389 Y100.427 E527.22129 F4800.000
G1 X111.628 Y102.188 E527.42462
